X:161
T:Boutonniere THO4.161, La
M:6/8
L:1/8
Z:vmp. Peter Dunk 2010/11.from a transcription by Fynn Titford-Mock 2007
B:Thompson's Compleat Collection of 200 Favourite Country Dances Volume IV.
Q:3/8=110
K:D
A2 A ABc|d2 A FGA|B2 G EFG|A2 A D3|ABA ABc|dcd Bcd|ecA EF^G|A2 A A3:|
|:a2 a afd|Bcd efg|g2 g gec|ABc def|A2 A AGF|BGE EFG|AFD DEC|D2 D D3:|
